icon-themes/breeze_svg/cmd/lc_gotopage.svg

<svg viewBox="0 0 24 24" xmlns="http://www.w3.org/2000/svg"><path d="m5 3.9980469v16.0000001.003906h1l7 .001953v-1.003906l-7-.001953v-14.0000001h8v3 1h4v4.0019531h1v-3.5917969-1.40625-.0117187l-3.992188-3.9921875-.007812.0117187v-.0117187h-1-8z" fill="#4d4d4d"/><path d="m16.71875 13-.71875.71875 2.3125 2.28125h-5.3125v1h5.3125l-2.3125 2.28125.71875.71875 3.28125-3.28125.21875-.21875-.21875-.21875z" fill="#1d99f3"/></svg>

<svg xmlns="http://www.w3.org/2000/svg" viewBox="0 0 24 24">
 <path 
     style="fill:#4d4d4d" 
     d="M 5 3.9980469 L 5 19.998047 L 5 20.001953 L 6 20.001953 L 13 20.003906 L 13 19 L 6 18.998047 L 6 4.9980469 L 14 4.9980469 L 14 7.9980469 L 14 8.9980469 L 18 8.9980469 L 18 13 L 19 13 L 19 9.4082031 L 19 8.0019531 L 19 7.9902344 L 15.007812 3.9980469 L 15 4.0097656 L 15 3.9980469 L 14 3.9980469 L 6 3.9980469 L 5 3.9980469 z "
     />
 <path 
     style="fill:#1d99f3" 
     d="M 16.71875 13 L 16 13.71875 L 18.3125 16 L 13 16 L 13 17 L 18.3125 17 L 16 19.28125 L 16.71875 20 L 20 16.71875 L 20.21875 16.5 L 20 16.28125 L 16.71875 13 z "
     />
 </svg>
